X:1
T:Rose and Crown
M:3/4
L:1/4
K:Bb
 F| F B3/2 B/2| B c B| A G F| B2 c| d3/2 c/2 B| f2 e/2d/2| d c B| c2d/2-e/2|\
 f f g| f/2 f3/2 e/2d/2| c d e| f2 d/2c/2| d c B| e3/2 d/2 c| B c A|\
 B2||
